X: 1
T:Accordian Man  " "
M:C
L:1/8
Q:80
C:Arranged by Arch Ott
S:March
K:HP
A{Gdc}d[|
{g}f2{gef}ed{gf}g2{a}f3/2e/2|
{Gdc}df-fd{g}A3{GAG}A|  !
{g}B{d}G-GB{G}A3/2d/2{g}fa|
{f}g{a}f-fd{gde}de{g}A{Gdc}d|
{g}f2{gef}ed{gf}g2{a}f3/2e/2|  !
{Gdc}df-fd{g}A3{GAG}A|
{g}Be-ed{gcd}c{e}A-Ae|
{Gdc}d6A2|] [|  !
{Gdc}d{g}f-fa{f}g2{a}f3/2e/2|
{Gdc}d{g}f-fd{g}A3{GAG}A|
{g}Bg-gf{g}e2d2|  !
{gcd}c/2A3/2-A2a3/2g/2{a}fe|
{Gdc}d{g}f-fa{f}g2{a}f3/2e/2|
{Gdc}d{g}f-fd{g}A3{GAG}A|  !
{g}Be-ed{gcd}cA-Ae|
{Gdc}d6|]
